X: 198
T:Scarlett & Green. JC.202
M:C|
L:1/8
Q:180
S:John Clare,Poet,Helpstone (1793-1864)
R:Reel
O:England150
A:Northamptonshire
N:
Z:vmp.P. Headford
K:D
A|Adde fddf|gfed (f/g/)a (f/g/)a|Adde fddf|edecd2D:|!
|:(f/g/)|affa geeg|fddf ecBA|affa geeg|gfeda2zf/g/|!
affa geeg|fddf ecBA|Addf gfed|(f/g/a) Acd2D:|]
